plasma/look-and-feel/com.github.sudorook.materia-light/contents/lockscreen/images/system-shutdown-hover.svg

<svg xmlns="http://www.w3.org/2000/svg" width="22" height="22" version="1.1">
 <circle style="opacity:0.08;fill:#000000" cx="11" cy="11" r="11"/>
 <path style="fill:#444444" d="M 10.985352,2.9999031 A 1.0001,0.9966092 0 0 0 10,4.0096686 V 9.98916 a 1.0001,0.9966092 0 1 0 2,0 V 4.0096686 A 1.0001,0.9966092 0 0 0 10.985352,2.9999031 Z M 7.628906,5.000879 A 1.0001608,1.0010221 0 0 0 7.095703,5.177637 c -2.5474257,1.713274 -3.6839537,4.900139 -2.7968747,7.840821 0.8870797,2.940681 3.5949607,4.965361 6.6640627,4.981445 3.069102,0.01609 5.798998,-1.979911 6.716797,-4.911133 0.917799,-2.931224 -0.185483,-6.129262 -2.714843,-7.869141 a 1.0001608,1.0010221 0 1 0 -1.132814,1.648437 c 1.812622,1.246854 2.597178,3.521463 1.939454,5.622071 -0.657724,2.100608 -2.598436,3.519339 -4.797852,3.507813 C 8.774217,15.98643 6.849577,14.547719 6.213867,12.440332 5.578158,10.332945 6.38537,8.066556 8.210938,6.838769 A 1.0001608,1.0010221 0 0 0 7.628906,5.000879 Z"/>
</svg>

<?xml version="1.0" encoding="UTF-8"?>
<svg width="22" height="22" version="1.1" xmlns="http://www.w3.org/2000/svg">
 <circle cx="11" cy="11" r="11" opacity=".08"/>
 <path d="m10.985 2.9999a1.0001 0.99661 0 0 0-0.98535 1.0098v5.9795a1.0001 0.99661 0 1 0 2 0v-5.9795a1.0001 0.99661 0 0 0-1.0146-1.0098zm-3.3564 2.001a1.0002 1.001 0 0 0-0.5332 0.17676c-2.5474 1.7133-3.684 4.9001-2.7969 7.8408 0.88708 2.9407 3.595 4.9654 6.6641 4.9814 3.0691 0.01609 5.799-1.9799 6.7168-4.9111 0.9178-2.9312-0.18548-6.1293-2.7148-7.8691a1.0002 1.001 0 1 0-1.1328 1.6484c1.8126 1.2469 2.5972 3.5215 1.9395 5.6221s-2.5984 3.5193-4.7979 3.5078c-2.1994-0.01152-4.1241-1.4502-4.7598-3.5576-0.63571-2.1074 0.1715-4.3738 1.9971-5.6016a1.0002 1.001 0 0 0-0.58203-1.8379z" fill="#444"/>
</svg>
